; generated by Slic3r 1.3.0 on 2019-04-26 at 22:19:06

; external perimeters extrusion width = 0.45mm (3.26mm^3/s)
; perimeters extrusion width = 0.45mm (3.26mm^3/s)
; infill extrusion width = 0.45mm (3.26mm^3/s)
; solid infill extrusion width = 0.45mm (3.26mm^3/s)
; top infill extrusion width = 0.45mm (1.63mm^3/s)

M107
M190 S50 ; set bed temperature and wait for it to be reached
M201 X1000 Y1000 E600
M109 S200
M92 E161.3
G29
G28
M500
G92 E0.0
G1 X8.0 F2000
G1 Y60.0 E4.0  F1000.0
G1 Y100.0 E8.5  F1000.0
G92 E0.0
; Filament gcode

G21 ; set units to millimeters
G90 ; use absolute coordinates
M83 ; use relative distances for extrusion
G1 E-1.50000 F1800.00000
G1 Z0.200 F6000.000
G1 X79.612 Y80.220 F6000.000
G1 E1.50000 F1800.00000
G1 F2100
G1 E0.04915 F1800.000 ; pressure advance
G1 F2100.000 ; restore F
G1 X80.630 Y79.222 E0.04827
G1 X81.799 Y78.191 E0.05273
G1 X83.387 Y77.593 E0.05745
G1 X116.613 Y77.593 E1.12468
G1 X118.202 Y78.191 E0.05744
G1 X119.370 Y79.222 E0.05274
G1 X120.480 Y80.315 E0.05273
G1 X121.528 Y81.468 E0.05273
G1 X122.431 Y82.571 E0.04827
G1 X123.353 Y83.827 E0.05273
G1 X124.205 Y85.132 E0.05274
G1 X124.983 Y86.482 E0.05274
G1 X125.687 Y87.872 E0.05273
G1 X126.313 Y89.298 E0.05273
G1 X126.860 Y90.757 E0.05274
G1 X127.327 Y92.243 E0.05273
G1 X127.740 Y93.882 E0.05720
G1 X128.012 Y95.282 E0.04827
G1 X128.228 Y96.825 E0.05273
G1 X128.360 Y98.377 E0.05273
G1 X128.406 Y99.934 E0.05273
G1 X128.360 Y101.623 E0.05720
G1 X128.228 Y103.176 E0.05273
G1 X128.012 Y104.718 E0.05273
G1 X127.711 Y106.247 E0.05274
G1 X127.363 Y107.630 E0.04827
G1 X126.903 Y109.119 E0.05274
G1 X126.363 Y110.580 E0.05273
G1 X125.743 Y112.009 E0.05274
G1 X125.046 Y113.403 E0.05273
G1 X124.189 Y114.892 E0.05816
G1 X123.353 Y116.173 E0.05177
G1 X122.431 Y117.429 E0.05273
G1 X121.442 Y118.632 E0.05274
G1 X120.388 Y119.780 E0.05274
G1 X119.370 Y120.778 E0.04827
G1 X118.202 Y121.809 E0.05274
G1 X116.613 Y122.407 E0.05744
G1 X83.387 Y122.407 E1.12468
G1 X81.799 Y121.809 E0.05745
G1 X80.630 Y120.778 E0.05274
G1 X79.612 Y119.780 E0.04827
G1 X78.558 Y118.632 E0.05274
G1 X77.569 Y117.429 E0.05273
G1 X76.647 Y116.173 E0.05274
G1 X75.796 Y114.868 E0.05273
G1 X75.017 Y113.519 E0.05273
G1 X74.257 Y112.009 E0.05720
G1 X73.687 Y110.702 E0.04827
G1 X73.140 Y109.244 E0.05273
G1 X72.674 Y107.757 E0.05273
G1 X72.289 Y106.247 E0.05273
G1 X71.989 Y104.719 E0.05273
G1 X71.772 Y103.176 E0.05273
G1 X71.640 Y101.623 E0.05273
G1 X71.594 Y100.066 E0.05273
G1 X71.640 Y98.377 E0.05720
G1 X71.772 Y96.825 E0.05273
G1 X71.989 Y95.282 E0.05273
G1 X72.289 Y93.753 E0.05273
G1 X72.638 Y92.370 E0.04827
G1 X73.097 Y90.882 E0.05273
G1 X73.638 Y89.420 E0.05274
G1 X74.313 Y87.871 E0.05720
G1 X75.017 Y86.481 E0.05273
G1 X75.796 Y85.132 E0.05273
G1 X76.647 Y83.827 E0.05274
G1 X77.569 Y82.572 E0.05273
G1 X78.558 Y81.368 E0.05274
G1 X79.570 Y80.264 E0.05070
G1 E-0.04915 F1800.000 ; pressure discharge
G1 F1800.000 ; restore F
G1 E-1.50000 F1800.00000
G1 X101.661 Y109.479 F6000.000
G1 E1.50000 F1800.00000
G1 F1680
G1 E0.03131 F1800.000 ; pressure advance
G1 F1680.000 ; restore F
G1 X101.923 Y109.695 E0.01147
G1 X102.311 Y110.230 E0.02238
G1 X102.554 Y110.844 E0.02238
G1 X102.637 Y111.500 E0.02237
G1 X102.554 Y112.156 E0.02238
G1 X102.311 Y112.771 E0.02238
G1 X101.923 Y113.305 E0.02238
G1 X101.413 Y113.727 E0.02237
G1 X100.815 Y114.008 E0.02238
G1 X100.166 Y114.132 E0.02238
G1 X99.506 Y114.091 E0.02238
G1 X98.877 Y113.886 E0.02238
G1 X98.319 Y113.532 E0.02238
G1 X97.867 Y113.050 E0.02238
G1 X97.548 Y112.471 E0.02238
G1 X97.384 Y111.831 E0.02238
G1 X97.384 Y111.170 E0.02237
G1 X97.548 Y110.529 E0.02238
G1 X97.867 Y109.950 E0.02238
G1 X98.314 Y109.474 E0.02210
G1 X97.726 Y109.361 E0.02025
G1 X96.847 Y109.102 E0.03102
G1 X95.996 Y108.761 E0.03102
G1 X95.182 Y108.341 E0.03102
G1 X94.411 Y107.846 E0.03102
G1 X93.691 Y107.279 E0.03102
G1 X93.028 Y106.646 E0.03102
G1 X92.427 Y105.954 E0.03102
G1 X91.896 Y105.207 E0.03102
G1 X91.438 Y104.413 E0.03102
G1 X91.057 Y103.580 E0.03102
G1 X90.757 Y102.713 E0.03102
G1 X90.541 Y101.823 E0.03102
G1 X90.411 Y100.916 E0.03102
G1 X90.368 Y100.007 E0.03080
G1 X90.411 Y99.085 E0.03124
G1 X90.541 Y98.178 E0.03103
G1 X90.757 Y97.287 E0.03102
G1 X91.057 Y96.421 E0.03102
G1 X91.438 Y95.587 E0.03102
G1 X91.896 Y94.793 E0.03102
G1 X92.427 Y94.047 E0.03102
G1 X93.028 Y93.354 E0.03102
G1 X93.691 Y92.721 E0.03102
G1 X94.411 Y92.155 E0.03102
G1 X95.182 Y91.659 E0.03102
G1 X95.996 Y91.239 E0.03102
G1 X96.847 Y90.898 E0.03102
G1 X97.726 Y90.640 E0.03102
G1 X98.314 Y90.526 E0.02025
G1 X97.867 Y90.050 E0.02210
G1 X97.548 Y89.471 E0.02238
G1 X97.384 Y88.831 E0.02238
G1 X97.384 Y88.170 E0.02237
G1 X97.548 Y87.529 E0.02238
G1 X97.867 Y86.950 E0.02238
G1 X98.319 Y86.468 E0.02238
G1 X98.877 Y86.114 E0.02238
G1 X99.506 Y85.910 E0.02237
G1 X100.166 Y85.868 E0.02238
G1 X100.815 Y85.992 E0.02238
G1 X101.413 Y86.274 E0.02238
G1 X101.923 Y86.695 E0.02238
G1 X102.311 Y87.230 E0.02238
G1 X102.554 Y87.844 E0.02238
G1 X102.637 Y88.500 E0.02238
G1 X102.554 Y89.156 E0.02238
G1 X102.311 Y89.771 E0.02238
G1 X101.923 Y90.305 E0.02238
G1 X101.661 Y90.521 E0.01147
G1 X102.274 Y90.640 E0.02112
G1 X103.153 Y90.898 E0.03102
G1 X104.004 Y91.239 E0.03102
G1 X104.819 Y91.659 E0.03102
G1 X105.589 Y92.155 E0.03102
G1 X106.310 Y92.721 E0.03102
G1 X106.973 Y93.354 E0.03102
G1 X107.573 Y94.047 E0.03102
G1 X108.105 Y94.793 E0.03102
G1 X108.563 Y95.587 E0.03102
G1 X108.943 Y96.421 E0.03102
G1 X109.243 Y97.287 E0.03102
G1 X109.459 Y98.178 E0.03102
G1 X109.589 Y99.085 E0.03102
G1 X109.633 Y99.994 E0.03080
G1 X109.589 Y100.915 E0.03124
G1 X109.459 Y101.823 E0.03103
G1 X109.243 Y102.713 E0.03102
G1 X108.943 Y103.580 E0.03102
G1 X108.563 Y104.413 E0.03102
G1 X108.105 Y105.207 E0.03102
G1 X107.573 Y105.954 E0.03102
G1 X106.973 Y106.646 E0.03102
G1 X106.310 Y107.279 E0.03102
G1 X105.589 Y107.846 E0.03102
G1 X104.819 Y108.341 E0.03102
G1 X104.004 Y108.761 E0.03102
G1 X103.153 Y109.102 E0.03102
G1 X102.274 Y109.361 E0.03102
G1 X101.720 Y109.468 E0.01909
G1 E-0.03131 F1800.000 ; pressure discharge
G1 F1800.000 ; restore F
G1 E-1.50000 F1800.00000
G1 X100.701 Y109.190 F6000.000
G1 E1.50000 F1800.00000
G1 F1680
G1 E0.03166 F1800.000 ; pressure advance
G1 F1680.000 ; restore F
G1 X100.669 Y109.373 E0.00631
G1 X101.193 Y109.620 E0.01960
G1 X101.623 Y109.976 E0.01889
G1 X101.952 Y110.427 E0.01889
G1 X102.157 Y110.946 E0.01889
G1 X102.227 Y111.500 E0.01889
G1 X102.157 Y112.054 E0.01889
G1 X101.952 Y112.573 E0.01889
G1 X101.623 Y113.025 E0.01889
G1 X101.193 Y113.380 E0.01889
G1 X100.688 Y113.618 E0.01889
G1 X100.140 Y113.723 E0.01889
G1 X99.583 Y113.688 E0.01889
G1 X99.052 Y113.515 E0.01889
G1 X98.581 Y113.216 E0.01889
G1 X98.199 Y112.809 E0.01889
G1 X97.930 Y112.320 E0.01889
G1 X97.791 Y111.779 E0.01889
G1 X97.791 Y111.221 E0.01889
G1 X97.930 Y110.680 E0.01889
G1 X98.199 Y110.191 E0.01889
G1 X98.581 Y109.784 E0.01889
G1 X99.052 Y109.485 E0.01889
G1 X99.346 Y109.390 E0.01045
G1 X99.324 Y109.192 E0.00673
G1 X98.684 Y109.131 E0.02175
G1 X97.823 Y108.965 E0.02971
G1 X96.981 Y108.717 E0.02971
G1 X96.166 Y108.391 E0.02971
G1 X95.386 Y107.988 E0.02971
G1 X94.647 Y107.514 E0.02971
G1 X93.958 Y106.971 E0.02971
G1 X93.323 Y106.365 E0.02971
G1 X92.748 Y105.702 E0.02971
G1 X92.239 Y104.987 E0.02971
G1 X91.800 Y104.227 E0.02971
G1 X91.435 Y103.428 E0.02971
G1 X91.148 Y102.599 E0.02971
G1 X90.942 Y101.746 E0.02971
G1 X90.817 Y100.877 E0.02971
G1 X90.775 Y100.007 E0.02949
G1 X90.817 Y99.124 E0.02993
G1 X90.942 Y98.255 E0.02971
G1 X91.148 Y97.402 E0.02971
G1 X91.435 Y96.572 E0.02971
G1 X91.800 Y95.774 E0.02971
G1 X92.239 Y95.014 E0.02971
G1 X92.748 Y94.299 E0.02971
G1 X93.323 Y93.635 E0.02971
G1 X93.958 Y93.029 E0.02971
G1 X94.647 Y92.487 E0.02971
G1 X95.386 Y92.012 E0.02971
G1 X96.166 Y91.610 E0.02971
G1 X96.981 Y91.283 E0.02971
G1 X97.823 Y91.036 E0.02971
G1 X98.684 Y90.869 E0.02971
G1 X99.325 Y90.808 E0.02177
G1 X99.346 Y90.611 E0.00673
G1 X99.052 Y90.515 E0.01047
G1 X98.581 Y90.216 E0.01889
G1 X98.199 Y89.809 E0.01889
G1 X97.930 Y89.320 E0.01889
G1 X97.791 Y88.779 E0.01889
G1 X97.791 Y88.221 E0.01889
G1 X97.930 Y87.680 E0.01889
G1 X98.199 Y87.191 E0.01889
G1 X98.581 Y86.784 E0.01889
G1 X99.052 Y86.485 E0.01889
G1 X99.583 Y86.313 E0.01889
G1 X100.140 Y86.278 E0.01889
G1 X100.688 Y86.382 E0.01889
G1 X101.193 Y86.620 E0.01889
G1 X101.623 Y86.976 E0.01889
G1 X101.952 Y87.427 E0.01889
G1 X102.157 Y87.946 E0.01889
G1 X102.227 Y88.500 E0.01889
G1 X102.157 Y89.054 E0.01889
G1 X101.952 Y89.573 E0.01889
G1 X101.623 Y90.025 E0.01889
G1 X101.193 Y90.380 E0.01889
G1 X100.669 Y90.627 E0.01960
G1 X100.701 Y90.810 E0.00631
G1 X101.316 Y90.869 E0.02090
G1 X102.178 Y91.036 E0.02971
G1 X103.020 Y91.283 E0.02971
G1 X103.835 Y91.610 E0.02971
G1 X104.615 Y92.012 E0.02971
G1 X105.353 Y92.487 E0.02971
G1 X106.043 Y93.029 E0.02971
G1 X106.678 Y93.635 E0.02971
G1 X107.253 Y94.299 E0.02971
G1 X107.762 Y95.014 E0.02971
G1 X108.200 Y95.774 E0.02971
G1 X108.565 Y96.572 E0.02971
G1 X108.852 Y97.402 E0.02971
G1 X109.059 Y98.255 E0.02971
G1 X109.184 Y99.123 E0.02971
G1 X109.225 Y99.994 E0.02949
G1 X109.184 Y100.877 E0.02993
G1 X109.059 Y101.746 E0.02971
G1 X108.852 Y102.599 E0.02971
G1 X108.565 Y103.428 E0.02971
G1 X108.200 Y104.227 E0.02971
G1 X107.762 Y104.987 E0.02971
G1 X107.253 Y105.702 E0.02971
G1 X106.678 Y106.365 E0.02971
G1 X106.043 Y106.971 E0.02971
G1 X105.353 Y107.514 E0.02971
G1 X104.615 Y107.988 E0.02971
G1 X103.835 Y108.391 E0.02971
G1 X103.020 Y108.717 E0.02971
G1 X102.178 Y108.965 E0.02971
G1 X101.316 Y109.131 E0.02971
G1 X100.761 Y109.184 E0.01887
G1 X100.784 Y109.357 F6000.000
G1 E-0.03166 F1800.000 ; pressure discharge
G1 F1800.000 ; restore F
G1 E-1.50000 F1800.00000
G1 X116.375 Y119.368 F6000.000
G1 E1.50000 F1800.00000
G1 F1680
G1 E0.03144 F1800.000 ; pressure advance
G1 F1680.000 ; restore F
G1 X83.625 Y119.368 E1.10856
G1 X82.746 Y118.596 E0.03962
G1 X81.752 Y117.622 E0.04709
G1 X80.813 Y116.595 E0.04709
G1 X79.932 Y115.518 E0.04709
G1 X79.112 Y114.394 E0.04709
G1 X78.354 Y113.228 E0.04709
G1 X77.661 Y112.021 E0.04709
G1 X77.036 Y110.778 E0.04709
G1 X76.480 Y109.503 E0.04709
G1 X75.994 Y108.199 E0.04709
G1 X75.581 Y106.871 E0.04709
G1 X75.241 Y105.522 E0.04709
G1 X74.975 Y104.156 E0.04709
G1 X74.785 Y102.778 E0.04709
G1 X74.671 Y101.391 E0.04709
G1 X74.633 Y100.000 E0.04709
G1 X74.671 Y98.609 E0.04709
G1 X74.785 Y97.223 E0.04709
G1 X74.975 Y95.845 E0.04709
G1 X75.241 Y94.479 E0.04709
G1 X75.581 Y93.130 E0.04709
G1 X75.994 Y91.801 E0.04709
G1 X76.480 Y90.497 E0.04709
G1 X77.036 Y89.222 E0.04709
G1 X77.661 Y87.979 E0.04709
G1 X78.354 Y86.773 E0.04709
G1 X79.112 Y85.606 E0.04709
G1 X79.932 Y84.482 E0.04709
G1 X80.813 Y83.406 E0.04709
G1 X81.752 Y82.379 E0.04709
G1 X82.746 Y81.405 E0.04709
G1 X83.625 Y80.632 E0.03962
G1 X116.375 Y80.632 E1.10856
G1 X117.255 Y81.405 E0.03962
G1 X118.248 Y82.379 E0.04709
G1 X119.187 Y83.406 E0.04709
G1 X120.068 Y84.482 E0.04709
G1 X120.889 Y85.606 E0.04709
G1 X121.646 Y86.773 E0.04709
G1 X122.339 Y87.979 E0.04709
G1 X122.964 Y89.222 E0.04709
G1 X123.521 Y90.497 E0.04709
G1 X124.006 Y91.801 E0.04709
G1 X124.420 Y93.130 E0.04709
G1 X124.760 Y94.479 E0.04709
G1 X125.025 Y95.845 E0.04709
G1 X125.215 Y97.223 E0.04709
G1 X125.330 Y98.609 E0.04709
G1 X125.368 Y100.000 E0.04709
G1 X125.331 Y101.363 E0.04614
G1 X125.215 Y102.778 E0.04806
G1 X125.025 Y104.156 E0.04708
G1 X124.760 Y105.522 E0.04709
G1 X124.420 Y106.871 E0.04709
G1 X124.006 Y108.199 E0.04709
G1 X123.521 Y109.503 E0.04709
G1 X122.965 Y110.778 E0.04708
G1 X122.325 Y112.045 E0.04806
G1 X121.646 Y113.228 E0.04614
G1 X120.889 Y114.394 E0.04709
G1 X120.068 Y115.518 E0.04709
G1 X119.187 Y116.595 E0.04709
G1 X118.248 Y117.622 E0.04709
G1 X117.255 Y118.596 E0.04709
G1 X116.420 Y119.329 E0.03759
G1 X116.529 Y119.775 F6000.000
G1 F1680
G1 X83.472 Y119.775 E1.11894
G1 X82.469 Y118.894 E0.04519
G1 X81.459 Y117.905 E0.04785
G1 X80.505 Y116.861 E0.04785
G1 X79.610 Y115.767 E0.04785
G1 X78.777 Y114.626 E0.04785
G1 X78.007 Y113.440 E0.04785
G1 X77.303 Y112.214 E0.04785
G1 X76.667 Y110.951 E0.04785
G1 X76.102 Y109.655 E0.04785
G1 X75.609 Y108.331 E0.04785
G1 X75.189 Y106.981 E0.04785
G1 X74.843 Y105.610 E0.04785
G1 X74.573 Y104.223 E0.04785
G1 X74.380 Y102.822 E0.04785
G1 X74.264 Y101.413 E0.04785
G1 X74.225 Y100.000 E0.04785
G1 X74.264 Y98.587 E0.04785
G1 X74.380 Y97.178 E0.04785
G1 X74.573 Y95.778 E0.04785
G1 X74.843 Y94.390 E0.04785
G1 X75.189 Y93.019 E0.04785
G1 X75.609 Y91.670 E0.04785
G1 X76.102 Y90.345 E0.04785
G1 X76.667 Y89.049 E0.04785
G1 X77.303 Y87.786 E0.04785
G1 X78.007 Y86.560 E0.04785
G1 X78.777 Y85.375 E0.04785
G1 X79.610 Y84.233 E0.04785
G1 X80.505 Y83.139 E0.04785
G1 X81.459 Y82.096 E0.04785
G1 X82.469 Y81.106 E0.04785
G1 X83.472 Y80.225 E0.04519
G1 X116.529 Y80.225 E1.11894
G1 X117.532 Y81.106 E0.04519
G1 X118.541 Y82.096 E0.04785
G1 X119.495 Y83.139 E0.04785
G1 X120.390 Y84.233 E0.04785
G1 X121.224 Y85.375 E0.04785
G1 X121.994 Y86.560 E0.04785
G1 X122.698 Y87.786 E0.04785
G1 X123.333 Y89.049 E0.04785
G1 X123.898 Y90.345 E0.04785
G1 X124.392 Y91.670 E0.04785
G1 X124.812 Y93.019 E0.04785
G1 X125.157 Y94.390 E0.04785
G1 X125.427 Y95.778 E0.04785
G1 X125.620 Y97.178 E0.04785
G1 X125.736 Y98.587 E0.04785
G1 X125.775 Y100.000 E0.04785
G1 X125.737 Y101.385 E0.04689
G1 X125.620 Y102.822 E0.04881
G1 X125.427 Y104.223 E0.04785
G1 X125.157 Y105.610 E0.04785
G1 X124.812 Y106.981 E0.04785
G1 X124.392 Y108.331 E0.04785
G1 X123.898 Y109.655 E0.04785
G1 X123.333 Y110.951 E0.04785
G1 X122.683 Y112.239 E0.04881
G1 X121.994 Y113.440 E0.04689
G1 X121.224 Y114.626 E0.04785
G1 X120.390 Y115.767 E0.04785
G1 X119.495 Y116.861 E0.04785
G1 X118.541 Y117.905 E0.04785
G1 X117.532 Y118.894 E0.04785
G1 X116.574 Y119.736 E0.04316
G1 X116.249 Y119.489 F6000.000
G1 E-0.03144 F1800.000 ; pressure discharge
G1 F1800.000 ; restore F
G1 E-1.50000 F1800.00000
G1 X117.948 Y117.346 F6000.000
G1 E1.50000 F1800.00000
G1 F1680
G1 E0.03173 F1800.000 ; pressure advance
G1 F1680.000 ; restore F
G1 X118.879 Y116.328 E0.04691
G1 X119.746 Y115.269 E0.04657
G1 X120.555 Y114.161 E0.04668
G1 X115.755 Y118.961 E0.23095
G1 X115.176 Y118.961 E0.01968
G1 X121.537 Y112.600 E0.30604
G1 X121.966 Y111.852 E0.02932
G1 X122.231 Y111.327 E0.02001
G1 X114.597 Y118.961 E0.36727
G1 X114.019 Y118.961 E0.01968
G1 X122.767 Y110.213 E0.42086
G1 X123.198 Y109.203 E0.03735
G1 X113.440 Y118.961 E0.46944
G1 X112.862 Y118.961 E0.01968
G1 X123.541 Y108.281 E0.51380
G1 X123.822 Y107.422 E0.03074
G1 X112.283 Y118.961 E0.55512
G1 X111.705 Y118.961 E0.01968
G1 X124.069 Y106.597 E0.59486
G1 X124.264 Y105.823 E0.02714
G1 X111.126 Y118.961 E0.63207
G1 X110.547 Y118.961 E0.01968
G1 X124.431 Y105.077 E0.66796
G1 X124.571 Y104.359 E0.02489
G1 X109.969 Y118.961 E0.70251
G1 X109.390 Y118.961 E0.01968
G1 X124.681 Y103.670 E0.73565
G1 X124.774 Y102.999 E0.02305
G1 X108.812 Y118.961 E0.76795
G1 X108.233 Y118.961 E0.01968
G1 X124.842 Y102.353 E0.79903
G1 X124.893 Y101.723 E0.02150
G1 X107.654 Y118.961 E0.82934
G1 X107.076 Y118.961 E0.01968
G1 X124.930 Y101.107 E0.85898
G1 X124.947 Y100.512 E0.02025
G1 X106.497 Y118.961 E0.88760
G1 X105.919 Y118.961 E0.01968
G1 X124.959 Y99.921 E0.91600
G1 X124.943 Y99.358 E0.01916
G1 X105.340 Y118.961 E0.94310
G1 X104.761 Y118.961 E0.01968
G1 X124.928 Y98.795 E0.97019
G1 X124.892 Y98.252 E0.01851
G1 X104.183 Y118.961 E0.99630
G1 X103.604 Y118.961 E0.01968
G1 X124.848 Y97.718 E1.02202
G1 X124.800 Y97.187 E0.01812
G1 X103.026 Y118.961 E1.04754
G1 X102.447 Y118.961 E0.01968
G1 X124.729 Y96.679 E1.07200
G1 X124.659 Y96.170 E0.01746
G1 X101.869 Y118.961 E1.09646
G1 X101.290 Y118.961 E0.01968
G1 X124.577 Y95.674 E1.12035
G1 X124.483 Y95.189 E0.01679
G1 X100.711 Y118.961 E1.14366
G1 X100.133 Y118.961 E0.01968
G1 X124.389 Y94.705 E1.16696
G1 X124.279 Y94.236 E0.01637
G1 X99.554 Y118.961 E1.18950
G1 X98.976 Y118.961 E0.01968
G1 X124.162 Y93.774 E1.21173
G1 X124.046 Y93.312 E0.01621
G1 X98.397 Y118.961 E1.23397
G1 X97.818 Y118.961 E0.01968
G1 X123.912 Y92.868 E1.25535
G1 X123.775 Y92.426 E0.01572
G1 X97.240 Y118.961 E1.27658
G1 X96.661 Y118.961 E0.01968
G1 X101.474 Y114.148 E0.23156
